src/icons/svg/logout-left.svg

<svg width="20" height="20" fill="none" xmlns="http://www.w3.org/2000/svg"><path d="M15.25 4.463a.508.508 0 0 0-.299.312c-.045.109-.051.71-.051 5.234v5.11l.075.149a.584.584 0 0 0 1.05 0l.075-.149-.001-5.118c0-4.895-.003-5.123-.062-5.251a.508.508 0 0 0-.312-.299.557.557 0 0 0-.475.012m-8 1.501c-.165.078-3.763 3.674-3.815 3.813a.754.754 0 0 0 0 .446c.052.139 3.65 3.735 3.815 3.813.163.076.313.08.475.013a.508.508 0 0 0 .312-.299.56.56 0 0 0 .012-.476c-.035-.084-.459-.533-1.325-1.399L5.45 10.6h5.669l.149-.075a.584.584 0 0 0 0-1.05l-.149-.075H5.45l1.274-1.275c.866-.866 1.29-1.315 1.325-1.399a.56.56 0 0 0-.012-.476.508.508 0 0 0-.312-.299.553.553 0 0 0-.475.013" fill-rule="evenodd" fill="#000"/></svg>

<svg width="20" height="20" viewBox="0 0 20 20" fill="none" xmlns="http://www.w3.org/2000/svg"><path d="M15.250 4.463 C 15.091 4.536,15.020 4.610,14.951 4.775 C 14.906 4.884,14.900 5.485,14.900 10.009 L 14.900 15.119 14.975 15.268 C 15.196 15.705,15.804 15.705,16.025 15.268 L 16.100 15.119 16.099 10.001 C 16.099 5.106,16.096 4.878,16.037 4.750 C 15.964 4.591,15.890 4.520,15.725 4.451 C 15.564 4.384,15.414 4.388,15.250 4.463 M7.250 5.964 C 7.085 6.042,3.487 9.638,3.435 9.777 C 3.390 9.897,3.390 10.103,3.435 10.223 C 3.487 10.362,7.085 13.958,7.250 14.036 C 7.413 14.112,7.563 14.116,7.725 14.049 C 7.890 13.980,7.964 13.909,8.037 13.750 C 8.112 13.586,8.116 13.437,8.049 13.274 C 8.014 13.190,7.590 12.741,6.724 11.875 L 5.450 10.600 8.285 10.600 L 11.119 10.600 11.268 10.525 C 11.705 10.304,11.705 9.696,11.268 9.475 L 11.119 9.400 8.285 9.400 L 5.450 9.400 6.724 8.125 C 7.590 7.259,8.014 6.810,8.049 6.726 C 8.116 6.563,8.112 6.414,8.037 6.250 C 7.964 6.091,7.890 6.020,7.725 5.951 C 7.563 5.884,7.413 5.888,7.250 5.964 " stroke="none" fill-rule="evenodd" fill="black"></path></svg>
